;FLAVOR:Marlin
;TIME:33968
;Filament used: 14.8074m
;Layer height: 0.1
;MINX:0
;MINY:30.18
;MINZ:0.3
;MAXX:200
;MAXY:170.3
;MAXZ:23
;TARGET_MACHINE.NAME:Unknown
;Generated with Cura_SteamEngine 5.5.0
M140 S100
M105
M190 S100
M104 S240
M105
M109 S240
M82 ;absolute extrusion mode
G28 ;Home
G1 Z15.0 F6000 ;Move the platform down 15mm
;Prime the extruder
G92 E0
G1 F200 E3
G92 E0
G92 E0
G92 E0
G1 F1500 E-6.5
;LAYER_COUNT:228
;LAYER:0
M107
G0 F3600 X0.00 Y30.372 Z0.3
;TYPE:SKIRT
G1 F1500 E0
G1 F1350 X0.931 Y30.193 E0.0473
G1 X3.519 Y30.204 E0.17642
G1 X7.439 Y30.204 E0.37199
G1 X26.188 Y30.248 E1.30738
G1 X27.651 Y30.202 E1.3804
G1 X29.145 Y30.187 E1.45494
G1 X31.254 Y30.235 E1.56019
G1 X33.578 Y30.188 E1.67616
G1 X35.578 Y30.208 E1.77594
G1 X36.522 Y30.187 E1.82305
G1 X38.46 Y30.215 E1.91975
G1 X42.31 Y30.236 E2.11183
G1 X43.189 Y30.224 E2.15569
G1 X47.378 Y30.234 E2.36468
G1 X48.632 Y30.263 E2.42726
G1 X49.366 Y30.263 E2.46388
G1 X57.314 Y30.18 E2.86042
G1 X60.95 Y30.211 E3.04183
G1 X61.687 Y30.204 E3.0786
G1 X64.728 Y30.248 E3.23034
G1 X68.097 Y30.24 E3.39842
G1 X68.305 Y30.262 E3.40885
G1 X81.316 Y30.229 E4.05797
G1 X83.181 Y30.236 E4.15102
G1 X84.076 Y30.224 E4.19568
G1 X88.265 Y30.234 E4.40467
G1 X89.519 Y30.263 E4.46725
G1 X90.253 Y30.263 E4.50386
G1 X98.259 Y30.18 E4.90331
G1 X104.627 Y30.281 E5.22105
G1 X126.842 Y30.271 E6.32936
G1 X132.031 Y30.244 E6.58824
G1 X132.788 Y30.202 E6.62607
G1 X135.324 Y30.272 E6.75264
G1 X139.087 Y30.18 E6.94043
G1 X142.723 Y30.211 E7.12184
G1 X143.46 Y30.204 E7.15861
G1 X146.501 Y30.248 E7.31034
G1 X149.87 Y30.24 E7.47842
G1 X150.078 Y30.262 E7.48886
G1 X163.089 Y30.229 E8.13798
G1 X164.954 Y30.236 E8.23103
G1 X165.849 Y30.224 E8.27568
G1 X170.038 Y30.234 E8.48467
G1 X171.273 Y30.263 E8.5463
G1 X179.38 Y30.235 E8.95077
G1 X183.749 Y30.192 E9.16875
G1 X187.466 Y30.244 E9.35421
G1 X195.017 Y30.249 E9.73093
G1 X196.081 Y30.282 E9.78404
G1 X199.12 Y30.281 E9.93565
G1 X200 Y30.462 E9.98047
G1 F1500 E3.48047
G0 F3600 X0.00 Y30.779
G1 F1500 E9.98047
G1 F1350 X0.969 Y30.593 E10.0297
G1 X3.517 Y30.604 E10.15682
G1 X7.439 Y30.604 E10.35249
G1 X26.2 Y30.648 E11.28848
G1 X27.655 Y30.602 E11.36111
G1 X29.136 Y30.587 E11.435
G1 X31.253 Y30.635 E11.54065
G1 X33.574 Y30.588 E11.65647
G1 X35.583 Y30.608 E11.7567
G1 X36.516 Y30.587 E11.80326
G1 X38.454 Y30.615 E11.89996
G1 X42.313 Y30.636 E12.09249
G1 X43.188 Y30.624 E12.13614
G1 X47.369 Y30.634 E12.34474
G1 X48.623 Y30.663 E12.40731
G1 X49.37 Y30.663 E12.44458
G1 X57.311 Y30.58 E12.84078
G1 X60.951 Y30.611 E13.02239
G1 X61.681 Y30.604 E13.05881
G1 X64.723 Y30.648 E13.21059
G1 X68.055 Y30.638 E13.37683
G1 X68.283 Y30.662 E13.38827
G1 X81.315 Y30.629 E14.03844
G1 X83.185 Y30.636 E14.13173
G1 X84.075 Y30.624 E14.17614
G1 X88.256 Y30.634 E14.38473
G1 X89.51 Y30.663 E14.44731
G1 X90.257 Y30.663 E14.48458
G1 X98.253 Y30.58 E14.88352
G1 X104.621 Y30.681 E15.20126
G1 X126.844 Y30.671 E16.30997
G1 X132.037 Y30.644 E16.56905
G1 X132.777 Y30.602 E16.60603
G1 X135.323 Y30.672 E16.7331
G1 X139.084 Y30.58 E16.92079
G1 X142.724 Y30.611 E17.1024
G1 X143.454 Y30.604 E17.13882
G1 X146.496 Y30.648 E17.2906
G1 X149.828 Y30.638 E17.45684
G1 X150.056 Y30.662 E17.46828
G1 X163.088 Y30.629 E18.11845
G1 X164.958 Y30.636 E18.21174
G1 X165.848 Y30.624 E18.25615
G1 X170.029 Y30.634 E18.46474
G1 X171.265 Y30.663 E18.52642
G1 X179.384 Y30.635 E18.93148
G1 X183.743 Y30.592 E19.14897
G1 X187.46 Y30.644 E19.33443
G1 X195.005 Y30.649 E19.71085
G1 X196.069 Y30.682 E19.76396
G1 X199.079 Y30.681 E19.91413
G1 X200 Y30.87 E19.96103
G1 F1500 E13.46103
G0 F3600 X0.00 Y31.187
G1 F1500 E19.96103
G1 F1350 X1.008 Y30.993 E20.01224
G1 X3.515 Y31.004 E20.13732
G1 X7.439 Y31.004 E20.33309
G1 X26.212 Y31.048 E21.26968
G1 X27.659 Y31.002 E21.34191
G1 X29.127 Y30.987 E21.41515
G1 X31.252 Y31.035 E21.52119
G1 X33.57 Y30.988 E21.63686
G1 X35.588 Y31.008 E21.73755
G1 X36.51 Y30.987 E21.78356
G1 X38.448 Y31.015 E21.88026
G1 X42.317 Y31.036 E22.07328
G1 X43.187 Y31.024 E22.11669
G1 X47.36 Y31.034 E22.32488
G1 X48.614 Y31.063 E22.38746
G1 X49.374 Y31.063 E22.42538
G1 X57.308 Y30.98 E22.82123
G1 X60.952 Y31.011 E23.00304
G1 X61.675 Y31.004 E23.03911
G1 X64.718 Y31.048 E23.19094
G1 X68.013 Y31.036 E23.35533
G1 X68.261 Y31.062 E23.36777
G1 X81.314 Y31.029 E24.01899
G1 X83.189 Y31.036 E24.11253
G1 X84.074 Y31.024 E24.15669
G1 X88.247 Y31.034 E24.36488
G1 X89.501 Y31.063 E24.42746
G1 X90.261 Y31.063 E24.46538
G1 X98.247 Y30.98 E24.86382
G1 X104.615 Y31.081 E25.18157
G1 X126.846 Y31.071 E26.29067
G1 X132.043 Y31.044 E26.54996
G1 X132.766 Y31.002 E26.58609
G1 X135.322 Y31.072 E26.71366
G1 X139.081 Y30.98 E26.90125
G1 X142.725 Y31.011 E27.08306
G1 X143.448 Y31.004 E27.11913
G1 X146.491 Y31.048 E27.27096
G1 X149.786 Y31.036 E27.43535
G1 X150.034 Y31.062 E27.44779
G1 X163.087 Y31.029 E28.09901
G1 X164.962 Y31.036 E28.19255
G1 X165.847 Y31.024 E28.23671
G1 X170.02 Y31.034 E28.4449
G1 X171.257 Y31.063 E28.50663
G1 X179.388 Y31.035 E28.91229
G1 X183.737 Y30.992 E29.12928
G1 X187.454 Y31.044 E29.31474
G1 X194.993 Y31.049 E29.69086
G1 X196.057 Y31.082 E29.74397
G1 X199.037 Y31.081 E29.89264
G1 X200 Y31.279 E29.94169
G1 F1500 E23.44169
G0 F3600 X0.00 Y31.595
G1 F1500 E29.94169
G1 F1350 X1.047 Y31.393 E29.99489
G1 X3.513 Y31.404 E30.11792
G1 X7.439 Y31.404 E30.31379
G1 X26.224 Y31.448 E31.25098
G1 X27.663 Y31.402 E31.32281
G1 X29.118 Y31.387 E31.3954
G1 X31.251 Y31.435 E31.50184
G1 X33.566 Y31.388 E31.61736
G1 X35.593 Y31.408 E31.71849
G1 X36.504 Y31.387 E31.76396
G1 X38.442 Y31.415 E31.86065
G1 X42.321 Y31.436 E32.05418
G1 X43.186 Y31.424 E32.09734
G1 X47.351 Y31.434 E32.30513
G1 X48.605 Y31.463 E32.36771
G1 X49.378 Y31.463 E32.40628
G1 X57.305 Y31.38 E32.80178
G1 X60.953 Y31.411 E32.98379
G1 X61.669 Y31.404 E33.01951
G1 X64.713 Y31.448 E33.17139
G1 X68.014 Y31.436 E33.33608
G1 X68.243 Y31.462 E33.34758
G1 X81.313 Y31.429 E33.99964
G1 X83.193 Y31.436 E34.09344
G1 X84.073 Y31.424 E34.13735
G1 X88.238 Y31.434 E34.34514
G1 X89.492 Y31.463 E34.40772
G1 X90.265 Y31.463 E34.44628
G1 X98.241 Y31.38 E34.84423
G1 X104.609 Y31.481 E35.16197
G1 X126.848 Y31.471 E36.27148
G1 X132.051 Y31.444 E36.53106
G1 X132.755 Y31.402 E36.56625
G1 X135.321 Y31.472 E36.69431
G1 X139.078 Y31.38 E36.8818
G1 X142.726 Y31.411 E37.06381
G1 X143.442 Y31.404 E37.09953
G1 X146.486 Y31.448 E37.25142
G1 X149.787 Y31.436 E37.4161
G1 X150.016 Y31.462 E37.4276
G1 X163.086 Y31.429 E38.07967
G1 X164.966 Y31.436 E38.17346
G1 X165.846 Y31.424 E38.21737
G1 X170.011 Y31.434 E38.42516
G1 X171.249 Y31.463 E38.48695
G1 X179.392 Y31.435 E38.8932
G1 X183.731 Y31.392 E39.10969
G1 X187.448 Y31.444 E39.29515
G1 X194.981 Y31.449 E39.67097
G1 X196.045 Y31.482 E39.72408
G1 X198.996 Y31.481 E39.87131
G1 X200 Y31.687 E39.92244
G1 F1500 E33.42244
G0 F3600 X0.00 Y32.003
G1 F1500 E39.92244
G1 F1350 X1.086 Y31.793 E39.97762
G1 X3.511 Y31.804 E40.09861
G1 X7.439 Y31.804 E40.29458
G1 X26.236 Y31.848 E41.23237
G1 X27.667 Y31.802 E41.3038
G1 X29.109 Y31.787 E41.37574
G1 X31.25 Y31.835 E41.48258
G1 X33.562 Y31.788 E41.59795
G1 X35.598 Y31.808 E41.69953
G1 X36.498 Y31.787 E41.74445
G1 X38.436 Y31.815 E41.84114
G1 X42.325 Y31.836 E42.03517
G1 X43.185 Y31.824 E42.07808
G1 X47.342 Y31.834 E42.28547
G1 X48.596 Y31.863 E42.34805
G1 X49.382 Y31.863 E42.38727
G1 X57.302 Y31.78 E42.78242
G1 X60.954 Y31.811 E42.96463
G1 X61.663 Y31.804 E43
G1 X64.708 Y31.848 E43.15193
G1 X68.015 Y31.836 E43.31692
G1 X68.216 Y31.862 E43.32703
G1 X81.312 Y31.829 E43.98039
G1 X83.197 Y31.836 E44.07444
G1 X84.072 Y31.824 E44.1181
G1 X88.229 Y31.834 E44.32549
G1 X89.483 Y31.863 E44.38807
G1 X90.269 Y31.863 E44.42728
G1 X98.235 Y31.78 E44.82473
G1 X104.603 Y31.881 E45.14247
G1 X126.85 Y31.871 E46.25238
G1 X132.06 Y31.844 E46.51231
G1 X132.744 Y31.802 E46.5465
G1 X135.32 Y31.872 E46.67506
G1 X139.075 Y31.78 E46.86246
G1 X142.727 Y31.811 E47.04466
G1 X143.436 Y31.804 E47.08004
G1 X146.481 Y31.848 E47.23197
G1 X149.788 Y31.836 E47.39696
G1 X149.989 Y31.862 E47.40707
G1 X163.085 Y31.829 E48.06043
G1 X164.97 Y31.836 E48.15448
G1 X165.845 Y31.824 E48.19813
G1 X170.002 Y31.834 E48.40553
G1 X171.241 Y31.863 E48.46736
G1 X179.396 Y31.835 E48.87422
G1 X183.725 Y31.792 E49.0902
G1 X187.442 Y31.844 E49.27566
G1 X194.969 Y31.849 E49.65118
G1 X196.033 Y31.882 E49.70429
G1 X198.954 Y31.881 E49.85002
G1 X200 Y32.096 E49.9033
G1 F1500 E43.4033
G0 F3600 X0.00 Y32.411
G1 F1500 E49.9033
G1 F1350 X1.125 Y32.193 E49.96047
G1 X3.509 Y32.204 E50.07941
G1 X7.439 Y32.204 E50.27548
G1 X26.248 Y32.248 E51.21386
G1 X27.671 Y32.202 E51.2849
G1 X29.1 Y32.187 E51.35619
G1 X31.249 Y32.235 E51.46343
G1 X33.558 Y32.188 E51.57865
G1 X35.603 Y32.208 E51.68068
G1 X36.492 Y32.187 E51.72505
G1 X38.43 Y32.215 E51.82175
G1 X42.329 Y32.236 E52.01627
G1 X43.184 Y32.224 E52.05893
G1 X47.333 Y32.234 E52.26593
G1 X48.587 Y32.263 E52.32851
G1 X49.386 Y32.263 E52.36837
G1 X57.299 Y32.18 E52.76317
G1 X60.955 Y32.211 E52.94558
G1 X61.657 Y32.204 E52.9806
G1 X64.704 Y32.248 E53.13263
G1 X67.964 Y32.233 E53.29528
G1 X68.189 Y32.262 E53.30659
G1 X81.311 Y32.229 E53.96125
G1 X83.202 Y32.236 E54.0556
G1 X84.071 Y32.224 E54.09896
G1 X88.22 Y32.234 E54.30595
G1 X89.474 Y32.263 E54.36853
G1 X90.273 Y32.263 E54.40839
G1 X98.229 Y32.18 E54.80534
G1 X104.597 Y32.281 E55.12308
G1 X126.852 Y32.271 E56.23339
G1 X132.07 Y32.244 E56.49372
G1 X132.733 Y32.202 E56.52686
G1 X135.319 Y32.272 E56.65593
G1 X139.072 Y32.18 E56.84322
G1 X142.728 Y32.211 E57.02562
G1 X143.43 Y32.204 E57.06065
G1 X146.477 Y32.248 E57.21268
G1 X149.737 Y32.233 E57.37532
G1 X149.962 Y32.262 E57.38664
G1 X163.084 Y32.229 E58.0413
G1 X164.975 Y32.236 E58.13565
G1 X165.844 Y32.224 E58.17901
G1 X169.993 Y32.234 E58.386
G1 X171.233 Y32.263 E58.44788
G1 X179.4 Y32.235 E58.85534
G1 X183.719 Y32.192 E59.07082
G1 X187.436 Y32.244 E59.25628
G1 X194.957 Y32.249 E59.63151
G1 X196.021 Y32.282 E59.68462
G1 X198.913 Y32.281 E59.8289
G1 X200 Y32.504 E59.88426
G1 F1500 E53.38426
G0 F3600 X0.00 Y32.819
G1 F1500 E59.88426
G1 F1350 X1.164 Y32.593 E59.94342
G1 X3.507 Y32.604 E60.06031
G1 X7.439 Y32.604 E60.25648
G1 X26.26 Y32.648 E61.19546
G1 X27.675 Y32.602 E61.2661
G1 X29.091 Y32.587 E61.33674
G1 X31.248 Y32.635 E61.44438
G1 X33.554 Y32.588 E61.55946
G1 X35.609 Y32.608 E61.66198
G1 X36.486 Y32.587 E61.70575
G1 X38.424 Y32.615 E61.80245
G1 X42.333 Y32.636 E61.99747
G1 X43.183 Y32.624 E62.03988
G1 X47.324 Y32.634 E62.24648
G1 X48.578 Y32.663 E62.30906
G1 X49.39 Y32.663 E62.34957
G1 X57.296 Y32.58 E62.74402
G1 X60.956 Y32.611 E62.92663
G1 X61.651 Y32.604 E62.9613
G1 X64.7 Y32.648 E63.11343
G1 X67.913 Y32.63 E63.27373
G1 X68.162 Y32.662 E63.28626
G1 X81.31 Y32.629 E63.94222
G1 X83.207 Y32.636 E64.03686
G1 X84.07 Y32.624 E64.07992
G1 X88.211 Y32.634 E64.28651
G1 X89.465 Y32.663 E64.34909
G1 X90.277 Y32.663 E64.3896
G1 X98.223 Y32.58 E64.78605
G1 X104.591 Y32.681 E65.10379
G1 X126.854 Y32.671 E66.2145
G1 X132.081 Y32.644 E66.47528
G1 X132.722 Y32.602 E66.50733
G1 X135.318 Y32.672 E66.63689
G1 X139.069 Y32.58 E66.82408
G1 X142.729 Y32.611 E67.00669
G1 X143.424 Y32.604 E67.04136
G1 X146.473 Y32.648 E67.19349
G1 X149.686 Y32.63 E67.35379
G1 X149.935 Y32.662 E67.36632
G1 X163.083 Y32.629 E68.02228
G1 X164.98 Y32.636 E68.11692
G1 X165.843 Y32.624 E68.15998
G1 X169.984 Y32.634 E68.36658
G1 X171.225 Y32.663 E68.42851
G1 X179.404 Y32.635 E68.83656
G1 X183.713 Y32.592 E69.05155
G1 X187.43 Y32.644 E69.23701
G1 X194.945 Y32.649 E69.61193
G1 X196.009 Y32.682 E69.66504
G1 X198.871 Y32.681 E69.80783
G1 X200 Y32.913 E69.86533
G1 F1500 E63.36533
G0 F3600 X0.00 Y33.236
G1 F1500 E69.86533
G1 F1350 X0.024 Y33.223 E69.86669
G1 X1.204 Y32.993 E69.92667
G1 X3.505 Y33.004 E70.04147
G1 X7.439 Y33.004 E70.23774
G1 X26.272 Y33.048 E71.17732
G1 X27.679 Y33.002 E71.24756
G1 X29.082 Y32.987 E71.31756
G1 X31.247 Y33.035 E71.42559
G1 X33.55 Y32.988 E71.54052
G1 X35.615 Y33.008 E71.64354
G1 X36.48 Y32.987 E71.68671
G1 X38.418 Y33.015 E71.78341
G1 X42.337 Y33.036 E71.97893
G1 X43.182 Y33.024 E72.02109
G1 X47.315 Y33.034 E72.22729
G1 X48.569 Y33.063 E72.28987
G1 X49.394 Y33.063 E72.33103
G1 X57.293 Y32.98 E72.72513
G1 X60.957 Y33.011 E72.90794
G1 X61.645 Y33.004 E72.94226
G1 X64.696 Y33.048 E73.09449
G1 X67.915 Y33.03 E73.25509
G1 X68.13 Y33.062 E73.26594
G1 X81.309 Y33.029 E73.92344
G1 X83.212 Y33.036 E74.01838
G1 X84.069 Y33.024 E74.06114
G1 X88.202 Y33.034 E74.26734
G1 X89.456 Y33.063 E74.32992
G1 X90.281 Y33.063 E74.37108
G1 X98.217 Y32.98 E74.76703
G1 X104.585 Y33.081 E75.08477
G1 X126.856 Y33.071 E76.19587
G1 X132.094 Y33.044 E76.4572
G1 X132.711 Y33.002 E76.48806
G1 X135.317 Y33.072 E76.61812
G1 X139.066 Y32.98 E76.80521
G1 X142.73 Y33.011 E76.98802
G1 X143.418 Y33.004 E77.02234
G1 X146.469 Y33.048 E77.17457
G1 X149.688 Y33.03 E77.33517
G1 X149.903 Y33.062 E77.34602
G1 X163.082 Y33.029 E78.00352
G1 X164.985 Y33.036 E78.09846
G1 X165.842 Y33.024 E78.14122
G1 X169.975 Y33.034 E78.34742
G1 X171.217 Y33.063 E78.4094
G1 X179.408 Y33.035 E78.81805
G1 X183.707 Y32.992 E79.03254
G1 X187.424 Y33.044 E79.218
G1 X194.933 Y33.049 E79.59263
G1 X195.997 Y33.082 E79.64574
G1 X198.829 Y33.081 E79.78703
G1 X200 Y33.322 E79.84667
G1 F1500 E73.34667
G0 F3600 X0.00 Y33.659
G1 F1500 E79.84667
G1 F1350 X0.101 Y33.616 E79.85215
G1 X1.244 Y33.393 E79.91025
G1 X3.503 Y33.404 E80.02295
G1 X7.439 Y33.404 E80.21932
G1 X26.284 Y33.448 E81.1595
G1 X27.683 Y33.402 E81.22934
G1 X29.073 Y33.387 E81.29869
G1 X31.246 Y33.435 E81.40713
G1 X33.546 Y33.388 E81.5219
G1 X35.621 Y33.408 E81.62542
G1 X36.474 Y33.387 E81.66799
G1 X38.412 Y33.415 E81.76469
G1 X42.341 Y33.436 E81.96071
G1 X43.181 Y33.424 E82.00262
G1 X47.306 Y33.434 E82.20842
G1 X48.56 Y33.463 E82.271
G1 X49.398 Y33.463 E82.31281
G1 X57.29 Y33.38 E82.70656
G1 X60.958 Y33.411 E82.88957
G1 X61.639 Y33.404 E82.92355
G1 X64.693 Y33.448 E83.07593
G1 X67.856 Y33.426 E83.23373
G1 X68.098 Y33.462 E83.24594
G1 X81.308 Y33.429 E83.90499
G1 X83.217 Y33.436 E84.00023
G1 X84.068 Y33.424 E84.04269
G1 X88.193 Y33.434 E84.24849
G1 X89.447 Y33.463 E84.31107
G1 X90.285 Y33.463 E84.35288
G1 X98.211 Y33.38 E84.74833
G1 X104.579 Y33.481 E85.06607
G1 X126.858 Y33.471 E86.17757
G1 X132.109 Y33.444 E86.43955
G1 X132.7 Y33.402 E86.46911
G1 X135.316 Y33.472 E86.59967
G1 X139.063 Y33.38 E86.78666
G1 X142.731 Y33.411 E86.96967
G1 X143.412 Y33.404 E87.00364
G1 X146.466 Y33.448 E87.15603
G1 X149.629 Y33.426 E87.31383
G1 X149.871 Y33.462 E87.32604
G1 X163.081 Y33.429 E87.98509
G1 X164.99 Y33.436 E88.08033
G1 X165.841 Y33.424 E88.12279
G1 X169.966 Y33.434 E88.32859
G1 X171.209 Y33.463 E88.39062
G1 X179.412 Y33.435 E88.79987
G1 X183.701 Y33.392 E89.01386
G1 X187.418 Y33.444 E89.19932
G1 X194.921 Y33.449 E89.57365
G1 X195.985 Y33.482 E89.62676
G1 X198.788 Y33.481 E89.7666
G1 X199.894 Y33.708 E89.82293
G1 X200 Y33.751 E89.82863
G1 F1500 E83.32863
G0 F3600 X0.00 Y34.094
G1 F1500 E89.82863
G1 F1350 X0.178 Y34.009 E89.83848
G1 X1.284 Y33.793 E89.8947
G1 X3.501 Y33.804 E90.0053
G1 X7.439 Y33.804 E90.20177
G1 X26.296 Y33.848 E91.14255
G1 X27.687 Y33.802 E91.21199
G1 X29.064 Y33.787 E91.28069
G1 X31.245 Y33.835 E91.38953
G1 X33.542 Y33.788 E91.50415
G1 X35.627 Y33.808 E91.60818
G1 X36.468 Y33.787 E91.65015
G1 X38.406 Y33.815 E91.74684
G1 X42.345 Y33.836 E91.94336
G1 X43.18 Y33.824 E91.98503
G1 X47.297 Y33.834 E92.19043
G1 X48.551 Y33.863 E92.25301
G1 X49.402 Y33.863 E92.29546
G1 X57.287 Y33.78 E92.68887
G1 X60.959 Y33.811 E92.87207
G1 X61.633 Y33.804 E92.9057
G1 X64.69 Y33.848 E93.05823
G1 X67.797 Y33.822 E93.21324
G1 X68.066 Y33.862 E93.22681
G1 X81.307 Y33.829 E93.88741
G1 X83.222 Y33.836 E93.98295
G1 X84.067 Y33.824 E94.02511
G1 X88.184 Y33.834 E94.23051
G1 X89.438 Y33.863 E94.29309
G1 X90.289 Y33.863 E94.33555
G1 X98.205 Y33.78 E94.7305
G1 X104.573 Y33.881 E95.04824
G1 X126.86 Y33.871 E96.16014
G1 X132.127 Y33.844 E96.42292
G1 X132.689 Y33.802 E96.45103
G1 X135.315 Y33.872 E96.58209
G1 X139.06 Y33.78 E96.76899
G1 X142.732 Y33.811 E96.95219
G1 X143.406 Y33.804 E96.98582
G1 X146.463 Y33.848 E97.13835
G1 X149.57 Y33.822 E97.29336
G1 X149.839 Y33.862 E97.30693
G1 X163.08 Y33.829 E97.96753
G1 X164.995 Y33.836 E98.06307
G1 X165.84 Y33.824 E98.10523
